src/img/icons/direction-up-down.svg

<svg width="32" height="32" viewBox="0 0 32 32" fill="none" xmlns="http://www.w3.org/2000/svg">
<path d="M11.5797 16.8093C11.3067 16.8093 11.0796 16.7175 10.8983 16.534C10.7173 16.3502 10.6268 16.1226 10.6268 15.8511V5.16288L6.62319 9.16653C6.44424 9.35032 6.22537 9.44221 5.9666 9.44221C5.70807 9.44221 5.484 9.34981 5.29436 9.16501C5.09812 8.95758 5 8.72626 5 8.47104C5 8.21582 5.09939 7.99048 5.29818 7.795L10.7344 2.3588C10.8602 2.23323 10.992 2.14197 11.1298 2.08503C11.2676 2.02834 11.4161 2 11.5755 2C11.7283 2 11.8764 2.0286 12.0197 2.08579C12.1634 2.14299 12.2971 2.23399 12.4209 2.3588L17.8792 7.81749C18.0683 8.00636 18.164 8.22638 18.1663 8.47752C18.1686 8.72842 18.0703 8.95758 17.8715 9.16501C17.6791 9.34981 17.4558 9.44196 17.2016 9.44145C16.9474 9.44069 16.7209 9.34422 16.5221 9.15204L12.5429 5.16288V15.8656C12.5429 16.1333 12.4506 16.3575 12.2661 16.5382C12.0815 16.7189 11.8527 16.8093 11.5797 16.8093ZM20.5048 30C20.352 30 20.204 29.9731 20.0606 29.9192C19.917 29.8653 19.7833 29.7759 19.6595 29.6511L14.2011 24.1928C14.012 24.0037 13.9163 23.7837 13.914 23.5328C13.9117 23.2819 14.01 23.0526 14.2088 22.8449C14.4012 22.6601 14.6245 22.5681 14.8787 22.5688C15.1329 22.5694 15.3594 22.6658 15.5582 22.8583L19.5374 26.8474V16.1443C19.5374 15.8769 19.6297 15.6528 19.8143 15.4721C19.9988 15.2914 20.2276 15.201 20.5006 15.201C20.7736 15.201 21.0007 15.2928 21.182 15.4763C21.363 15.6598 21.4535 15.8875 21.4535 16.1592V26.8474L25.4571 22.8434C25.6361 22.6596 25.8549 22.5677 26.1137 22.5677C26.3722 22.5677 26.5963 22.6601 26.786 22.8449C26.9822 23.0526 27.0803 23.284 27.0803 23.5393C27.0803 23.7945 26.9809 24.0198 26.7821 24.2153L21.3459 29.6511C21.2201 29.7769 21.0883 29.8665 20.9505 29.9199C20.8128 29.9733 20.6642 30 20.5048 30Z" fill="#131212"/>
</svg>

<svg xmlns="http://www.w3.org/2000/svg" viewBox="0 0 32 32">
  <path fill="currentColor" d="M11.58 16.81a.935.935 0 0 1-.953-.958V5.161L6.623 9.168a.881.881 0 0 1-.656.275.931.931 0 0 1-.673-.277A.987.987 0 0 1 5 8.471c0-.255.1-.48.298-.676l5.436-5.436c.126-.126.258-.217.396-.274a1.188 1.188 0 0 1 .89 0c.143.058.277.149.4.274l5.46 5.458c.188.19.284.41.286.66.003.251-.096.48-.294.688a.935.935 0 0 1-.67.276.956.956 0 0 1-.68-.289l-3.98-3.99v10.704a.904.904 0 0 1-.276.672.943.943 0 0 1-.686.271ZM20.505 30c-.153 0-.301-.027-.444-.08a1.12 1.12 0 0 1-.401-.269l-5.46-5.458a.918.918 0 0 1-.287-.66c-.002-.251.096-.48.295-.688a.934.934 0 0 1 .67-.276c.254 0 .48.097.68.29l3.978 3.988V16.144c0-.267.093-.491.277-.672a.942.942 0 0 1 .687-.271.934.934 0 0 1 .953.958v10.688l4.003-4.004a.881.881 0 0 1 .657-.275c.258 0 .482.092.672.277a.989.989 0 0 1 .294.694c0 .255-.1.48-.298.676l-5.436 5.436a1.154 1.154 0 0 1-.395.269c-.138.053-.287.08-.446.08Z"/>
</svg>
